X: 30
T: Missa De plus en plus / Credo
N: Derived from Ock1005c-Missa_De_plus_en_plus-Credo.krn
C: Johannes Ockeghem
%%abc-version 2.0
%%abcx-abcm2ps-target-version 5.9.1 (29 Sep 2008)
%%abc-creator hum2abc beta
%%abcx-conversion-date 2019/02/17 07:26:14
%%abc-edited-by Jesse Rodin
%%abc-edited-by Will Watson 13/1/2012
%%abcx-initial-encoding-date 2012/01/13/
%%humdrum-veritas 2859452006
%%humdrum-veritas-data 1380244075
%%linebreak <none>
%%barnumbers 0
L: 1/4
M: 3/1
Q: 1/2=120
%%staves [1 2 3 4]
V: 1 clef=treble
V: 2 clef=treble-8
V: 3 clef=treble-8
V: 4 clef=bass
K: C
[V:1] C8E2F2 | 
[V:2] c12- | 
[V:3] z12 | 
[V:4] z12 | 
[V:1] G6FED4 | 
[V:2] c8B4 | 
[V:3] z12 | 
[V:4] z12 | 
[V:1] z2E4C2B,3A, | 
[V:2] c8d4 | 
[V:3] z12 | 
[V:4] z12 | 
[V:1] C4G,2C2D2F2 | 
[V:2] e6dcB3A | 
[V:3] z12 | 
[V:4] z12 | 
[V:1] E2A3GG4E2 | 
[V:2] c4d2e3Bc2 | 
[V:3] z12 | 
[V:4] z12 | 
[V:1] F2G2C3DE2F2 | 
[V:2] d2G2A2B2c2F2 | 
[V:3] z12 | 
[V:4] z12 | 
[V:1] _B,2C2D2C4=B,2 | 
[V:2] G2A2B2c2d4 | 
[V:3] z12 | 
[V:4] z12 | 
[V:1] !fermata!C12 | 
[V:2] !fermata!c12 | 
[V:3] z12 | 
[V:4] z12 | 
[V:1] E4F2G3Ac2 | 
[V:2] c4d2e4A2 | 
[V:3] z12 | 
[V:4] z12 | 
[V:1] B2c4A4^G2 | 
[V:2] G2A2c4B4 | 
[V:3] z12 | 
[V:4] z12 | 
[V:1] A4_BAGFG2A2 | 
[V:2] A4d4c4 | 
[V:3] z12 | 
[V:4] z12 | 
[V:1] D4F4E4 | 
[V:2] B2d4A4c2 | 
[V:3] z12 | 
[V:4] z12 | 
[V:1] D4B,4A,4 | 
[V:2] B2G2D2G4F2 | 
[V:3] z12 | 
[V:4] z12 | 
[V:1] G,4C4B,4 | 
[V:2] E2C3DEFD2G2 | 
[V:3] z12 | 
[V:4] z12 | 
[V:1] C4E4F4 | 
[V:2] z2A2G2c3BA2 | 
[V:3] z12 | 
[V:4] z12 | 
[V:1] G4A4B4 | 
[V:2] G4c4d4 | 
[V:3] z12 | 
[V:4] z12 | 
[V:1] c4A4(3:2:2G4E2 | 
[V:2] (3:2:8c2A2B2c2F4z2_B3G | 
[V:3] z12 | 
[V:4] z12 | 
[V:1] (3:2:8F4G2A2D2G2-G2^F2E2 | 
[V:2] (3:2:7A2D2E2D2G4_B2A4 | 
[V:3] z12 | 
[V:4] z12 | 
[V:1] G12 | 
[V:2] G3AB2c2d4 | 
[V:3] z4z4G4 | 
[V:4] G,12 | 
[V:1] z4z4G4 | 
[V:2] e8c4 | 
[V:3] G12 | 
[V:4] C,8E,4- | 
[V:1] G4F8 | 
[V:2] z4d8 | 
[V:3] B12 | 
[V:4] E,4D,8 | 
[V:1] E8G4 | 
[V:2] G12 | 
[V:3] c12- | 
[V:4] C,12 | 
[V:1] A4G2c3BA2 | 
[V:2] z4G4A4 | 
[V:3] c12 | 
[V:4] F,4E,4F,4 | 
[V:1] G2c4B2A2G2 | 
[V:2] B2A2c2d2e2f2 | 
[V:3] e12 | 
[V:4] G,2A,4B,2C4 | 
[V:1] B8A4- | 
[V:2] g8f4 | 
[V:3] d12- | 
[V:4] G,8D,4- | 
[V:1] A4z4F4 | 
[V:2] d2d4c2A2G2 | 
[V:3] d12 | 
[V:4] D,4F,8 | 
[V:1] G6E4DC | 
[V:2] B4c4B4 | 
[V:3] G12- | 
[V:4] E,4C,4z2G,2- | 
[V:1] B,4E3FG2E2 | 
[V:2] z2G4E2D2E2 | 
[V:3] G12- | 
[V:4] G,E,E,4C,2B,,2C,2 | 
[V:1] D2G4A2B4 | 
[V:2] G2C4E3CD2 | 
[V:3] G12 | 
[V:4] D,2E,4C,2B,,4 | 
[V:1] c4z4F3G | 
[V:2] E8F4- | 
[V:3] A12- | 
[V:4] A,,8z4 | 
[V:1] A4D4G4 | 
[V:2] F4G8 | 
[V:3] A4B8 | 
[V:4] A,4G,6E,2 | 
[V:1] A6G2F4 | 
[V:2] D4z2D4A2 | 
[V:3] A3Bc2d4c2 | 
[V:4] F,8F,4 | 
[V:1] E2D4G4^F2 | 
[V:2] G2B2A4z4 | 
[V:3] B2G2d3GA4 | 
[V:4] G,4D,8 | 
[V:1] G8E4 | 
[V:2] d4e4c4 | 
[V:3] G12 | 
[V:4] z2G,,4C,3B,,A,,G,, | 
[V:1] D4G,2B,2A,4 | 
[V:2] B2G8^F2 | 
[V:3] G4z4z4 | 
[V:4] B,,2C,D,E,D,C,B,,C,2D,2 | 
[V:1] G,8D4 | 
[V:2] G3FE2D2z2G2- | 
[V:3] z12 | 
[V:4] G,,12 | 
[V:1] E2G4A4GF | 
[V:2] GAB2G2E2D4 | 
[V:3] z12 | 
[V:4] G,,3A,,B,,2C,2D,2B,,2 | 
[V:1] E6C2C4 | 
[V:2] C4z4G4 | 
[V:3] c12- | 
[V:4] C,12 | 
[V:1] z4A6G2 | 
[V:2] G4c6B2 | 
[V:3] c12- | 
[V:4] C,8E,4- | 
[V:1] G2c4B2A3G | 
[V:2] G4A8 | 
[V:3] c12 | 
[V:4] E,4F,8 | 
[V:1] G3FD8 | 
[V:2] z4z4g4 | 
[V:3] B12- | 
[V:4] G,12- | 
[V:1] z4z4D4 | 
[V:2] g8g4- | 
[V:3] B12- | 
[V:4] G,12 | 
[V:1] E2G4F2D4 | 
[V:2] g2f2d4z4 | 
[V:3] B12 | 
[V:4] z2G,3E,F,2G,4 | 
[V:1] C6G2A2c2- | 
[V:2] g4e6c2 | 
[V:3] c12- | 
[V:4] C,12 | 
[V:1] cBAGA2E2F3E | 
[V:2] c4z4c4 | 
[V:3] c4A8 | 
[V:4] z12 | 
[V:1] G8F2E2- | 
[V:2] d2e4d3cB2- | 
[V:3] G8z2G2- | 
[V:4] z12 | 
[V:1] E2D4C2D4 | 
[V:2] B2A4G2A2B2 | 
[V:3] G2F2E4D2G2- | 
[V:4] z12 | 
[V:1] E2DCB,2C4E2 | 
[V:2] G4z4G4- | 
[V:3] G6F2E2DC | 
[V:4] z12 | 
[V:1] D2C2G4F2E2 | 
[V:2] G4G4A4 | 
[V:3] B,2C4E2D2C2 | 
[V:4] z12 | 
[V:1] D2E4C4B,2 | 
[V:2] B2G4A2F4 | 
[V:3] G3CE2F2D4 | 
[V:4] z12 | 
[V:1] C6A,2G,4- | 
[V:2] G8E4 | 
[V:3] C12 | 
[V:4] z4z4C,4 | 
[V:1] G,4z4z4 | 
[V:2] C4G8 | 
[V:3] z4z4c4 | 
[V:4] C,12- | 
[V:1] G4A6GF | 
[V:2] z4F8 | 
[V:3] c8c4 | 
[V:4] C,4A,,8 | 
[V:1] E4D4z4 | 
[V:2] G8E4- | 
[V:3] B12- | 
[V:4] G,,8G,4- | 
[V:1] G4G6E2 | 
[V:2] E4G8 | 
[V:3] B4c8 | 
[V:4] G,4E,8 | 
[V:1] F2G2A4B4 | 
[V:2] A4F4z4 | 
[V:3] d8G4- | 
[V:4] D,4z2D,4C,B,, | 
[V:1] G4A2B2c4 | 
[V:2] G4D2D4C2 | 
[V:3] G4F8 | 
[V:4] C,2E,2D,2C,B,,A,,G,,A,,2 | 
[V:1] B2G3FE2D4 | 
[V:2] D4G3AB4 | 
[V:3] G8G4 | 
[V:4] G,,12 | 
[V:1] z4G8 | 
[V:2] A2d4^c2^c2B2 | 
[V:3] F4E8 | 
[V:4] D,4z4E,4 | 
[V:1] A4A2_B4A2 | 
[V:2] d4d2f4e2 | 
[V:3] D12- | 
[V:4] F,8D,4 | 
[V:1] A8F4 | 
[V:2] d6cBA4 | 
[V:3] D12 | 
[V:4] F,6G,2A,4 | 
[V:1] D4G6FE | 
[V:2] G4_B8 | 
[V:3] d12- | 
[V:4] _B,4G,8 | 
[V:1] F12 | 
[V:2] A4A3GA2B2 | 
[V:3] d12 | 
[V:4] D,12- | 
[V:1] z12 | 
[V:2] c2d2A2_B2A2F2 | 
[V:3] z12 | 
[V:4] D,4D,2_B,,2C,2D,2 | 
[V:1] z12 | 
[V:2] G2A2D3A2GFD | 
[V:3] z12 | 
[V:4] G,,2D,4F,3E,D,2 | 
[V:1] z12 | 
[V:2] E2D2z2d4c2 | 
[V:3] z12 | 
[V:4] C,2D,2F,4E,4 | 
[V:1] z12 | 
[V:2] d3A_B/A/G/F/E2zFDE- | 
[V:3] z12 | 
[V:4] D,4z2C,2D,3C, | 
[V:1] z12 | 
[V:2] EFG3A_BA2FG2 | 
[V:3] z12 | 
[V:4] A,,2G,,2C,2D,2_B,,4 | 
[V:1] E2F2E2A6 | 
[V:2] A4A3GE2A2- | 
[V:3] z12 | 
[V:4] A,,12 | 
[V:1] c2BA2FG2A2F2- | 
[V:2] A2c2B4A4 | 
[V:3] z12 | 
[V:4] z12 | 
[V:1] F2D2E2C2D2B,2 | 
[V:2] z12 | 
[V:3] z12 | 
[V:4] D,3B,,C,2A,,2G,,G,2G,- | 
[V:1] A,2G,2z2D3EG2 | 
[V:2] z12 | 
[V:3] z12 | 
[V:4] G,F,G,2F,D,2E,F,G,E,2 | 
[V:1] FABc2BGF/G/AG2^F | 
[V:2] z12 | 
[V:3] z12 | 
[V:4] D,D,2C,A,,G,,2D,2B,,A,,2 | 
[V:1] G4D2E2F2G2 | 
[V:2] D2E2F2G2A2G2- | 
[V:3] z12 | 
[V:4] G,,4z4z4 | 
[V:1] A2GFEDD4^C2 | 
[V:2] GFEDF2G2E4 | 
[V:3] z12 | 
[V:4] z12 | 
[V:1] D4z2E4F2 | 
[V:2] D4F2G2A4 | 
[V:3] z12 | 
[V:4] z12 | 
[V:1] G2A4G2z2c2- | 
[V:2] G2F2c4B2c2 | 
[V:3] z12 | 
[V:4] z12 | 
[V:1] c2B2c4B2G2 | 
[V:2] d4c2A2G2c2- | 
[V:3] z12 | 
[V:4] z12 | 
[V:1] A2G2z2F3DE2 | 
[V:2] c2_e2d4_B2c2 | 
[V:3] z12 | 
[V:4] z12 | 
[V:1] F2G2D4G2F2 | 
[V:2] d2G4F2E2D2 | 
[V:3] z12 | 
[V:4] z12 | 
[V:1] E2D6A4 | 
[V:2] G6d6 | 
[V:3] z12 | 
[V:4] z12 | 
[V:1] G2_B2AGF3GA2- | 
[V:2] G6A6 | 
[V:3] z12 | 
[V:4] z12 | 
[V:1] A2_B4G3E^F2 | 
[V:2] F2G2_B4A4 | 
[V:3] z12 | 
[V:4] z12 | 
[V:1] G12 ||  
[V:2] G12 ||  
[V:3] z12 ||  
[V:4] z12 ||  
[V:1] [M:2/1]G8 | 
[V:2] [M:2/1]G8- | 
[V:3] [M:2/1]c8- | 
[V:4] [M:2/1]C,8- | 
[V:1] E4A4- | 
[V:2] G4E4 | 
[V:3] c8- | 
[V:4] C,8 | 
[V:1] A4G4- | 
[V:2] F4G4 | 
[V:3] c8- | 
[V:4] F,4E,4 | 
[V:1] G4E4 | 
[V:2] E4C4 | 
[V:3] c8- | 
[V:4] C,8- | 
[V:1] C4G4- | 
[V:2] G8 | 
[V:3] c8- | 
[V:4] C,8- | 
[V:1] G4E4 | 
[V:2] E8 | 
[V:3] c8 | 
[V:4] C,8 | 
[V:1] F2E2D2C2 | 
[V:2] C8 | 
[V:3] c8 | 
[V:4] A,,8 | 
[V:1] B,8- | 
[V:2] z4G4 | 
[V:3] G8- | 
[V:4] E,8- | 
[V:1] B,8 | 
[V:2] B8 | 
[V:3] G8- | 
[V:4] E,8 | 
[V:1] z8 | 
[V:2] c8 | 
[V:3] G8- | 
[V:4] C,6B,,2 | 
[V:1] B8 | 
[V:2] d8 | 
[V:3] G8 | 
[V:4] G,,8 | 
[V:1] c8 | 
[V:2] c6BA | 
[V:3] z8 | 
[V:4] A,,8 | 
[V:1] B4A4 | 
[V:2] G4A4 | 
[V:3] z8 | 
[V:4] E,4F,4 | 
[V:1] G4c4- | 
[V:2] B4c4 | 
[V:3] z8 | 
[V:4] G,4E,4 | 
[V:1] c4B4 | 
[V:2] d8 | 
[V:3] z8 | 
[V:4] F,4G,4 | 
[V:1] c8 | 
[V:2] c8- | 
[V:3] z8 | 
[V:4] A,6F,2 | 
[V:1] A4G4- | 
[V:2] c4d4 | 
[V:3] z8 | 
[V:4] A,4B,4 | 
[V:1] G4c4 | 
[V:2] e8 | 
[V:3] z8 | 
[V:4] C8 | 
[V:1] B4G4 | 
[V:2] d8- | 
[V:3] z8 | 
[V:4] G,8 | 
[V:1] A8 | 
[V:2] d8 | 
[V:3] z8 | 
[V:4] z4F,4 | 
[V:1] G8 | 
[V:2] B4G4- | 
[V:3] z8 | 
[V:4] G,4_B,4- | 
[V:1] D4G4- | 
[V:2] G4d4- | 
[V:3] z8 | 
[V:4] B,4G,4 | 
[V:1] G4^F4 | 
[V:2] d2B2c4 | 
[V:3] z8 | 
[V:4] A,8 | 
[V:1] G6E2 | 
[V:2] d8 | 
[V:3] z8 | 
[V:4] G,8 | 
[V:1] F4A4- | 
[V:2] B4A4 | 
[V:3] D8 | 
[V:4] z8 | 
[V:1] A4G4 | 
[V:2] c6A2 | 
[V:3] C8 | 
[V:4] z8 | 
[V:1] F2D2E4 | 
[V:2] B4c4 | 
[V:3] D4C4 | 
[V:4] z8 | 
[V:1] A,8 | 
[V:2] d8 | 
[V:3] F8 | 
[V:4] D,8 | 
[V:1] z8 | 
[V:2] e4c4 | 
[V:3] E8 | 
[V:4] C,8 | 
[V:1] z8 | 
[V:2] d8 | 
[V:3] D8- | 
[V:4] B,,4D,4- | 
[V:1] z8 | 
[V:2] B8 | 
[V:3] D8 | 
[V:4] D,4G,,4- | 
[V:1] z8 | 
[V:2] G4D4 | 
[V:3] z4G4- | 
[V:4] G,,8 | 
[V:1] z8 | 
[V:2] E8 | 
[V:3] G8- | 
[V:4] C,6B,,2 | 
[V:1] z8 | 
[V:2] D8 | 
[V:3] G4F4 | 
[V:4] G,,4D,4- | 
[V:1] z8 | 
[V:2] z8 | 
[V:3] D4G4- | 
[V:4] D,2B,,4C,2- | 
[V:1] z8 | 
[V:2] z8 | 
[V:3] G8- | 
[V:4] C,2G,,2B,,2C,D, | 
[V:1] z8 | 
[V:2] z8 | 
[V:3] G4^F4 | 
[V:4] E,D,C,B,,A,,4 | 
[V:1] D8- | 
[V:2] B8- | 
[V:3] G8- | 
[V:4] G,,8- | 
[V:1] D4E4 | 
[V:2] B8 | 
[V:3] G8- | 
[V:4] G,,8 | 
[V:1] D4G4- | 
[V:2] d6c2 | 
[V:3] G8- | 
[V:4] z8 | 
[V:1] G4E4 | 
[V:2] B8 | 
[V:3] G8 | 
[V:4] z8 | 
[V:1] F6G2 | 
[V:2] A4B4 | 
[V:3] z8 | 
[V:4] D,8- | 
[V:1] A4_B4- | 
[V:2] A4d4- | 
[V:3] z8 | 
[V:4] D,8 | 
[V:1] B2A2G2F2 | 
[V:2] d4B2G2 | 
[V:3] d8- | 
[V:4] D,4G,4 | 
[V:1] D4_B4- | 
[V:2] A4G4- | 
[V:3] d8- | 
[V:4] F,4G,4- | 
[V:1] B4A4 | 
[V:2] G4D4 | 
[V:3] d8- | 
[V:4] G,4A,4 | 
[V:1] G6F2 | 
[V:2] G8 | 
[V:3] d8 | 
[V:4] _B,8 | 
[V:1] A8 | 
[V:2] c8 | 
[V:3] e8- | 
[V:4] A,8- | 
[V:1] c4B4 | 
[V:2] A4G4 | 
[V:3] e8- | 
[V:4] A,4E,4- | 
[V:1] G4A4 | 
[V:2] c8 | 
[V:3] e8- | 
[V:4] E,4A,4 | 
[V:1] B4E4 | 
[V:2] z4A4 | 
[V:3] e8 | 
[V:4] G,4C4 | 
[V:1] z4F4- | 
[V:2] D8 | 
[V:3] d8- | 
[V:4] B,4D4- | 
[V:1] F4G2F2 | 
[V:2] B8- | 
[V:3] d8 | 
[V:4] D4G,4- | 
[V:1] E2D2D4- | 
[V:2] B4A4- | 
[V:3] z8 | 
[V:4] G,4F,4 | 
[V:1] D4C4 | 
[V:2] A4G4 | 
[V:3] z8 | 
[V:4] E,8 | 
[V:1] F6G2 | 
[V:2] A8 | 
[V:3] d8- | 
[V:4] D,8- | 
[V:1] A4G4- | 
[V:2] d8 | 
[V:3] d8 | 
[V:4] D,4B,,4- | 
[V:1] G4E4 | 
[V:2] G8 | 
[V:3] B8- | 
[V:4] B,,4E,4 | 
[V:1] F6G2 | 
[V:2] z4F4 | 
[V:3] B8 | 
[V:4] D,8 | 
[V:1] E4G4- | 
[V:2] G8 | 
[V:3] c8- | 
[V:4] C,8- | 
[V:1] G4F4 | 
[V:2] E6F2 | 
[V:3] c8 | 
[V:4] C,8- | 
[V:1] E6D2 | 
[V:2] G8 | 
[V:3] c8- | 
[V:4] C,8 | 
[V:1] F6E2 | 
[V:2] F4F4- | 
[V:3] c8 | 
[V:4] z4C4- | 
[V:1] C4G4 | 
[V:2] F2D2E4 | 
[V:3] z8 | 
[V:4] C8 | 
[V:1] A4c4 | 
[V:2] F4f4- | 
[V:3] z8 | 
[V:4] A,4F,4 | 
[V:1] B8 | 
[V:2] f4e4 | 
[V:3] z8 | 
[V:4] G,8 | 
[V:1] A6F2 | 
[V:2] f8 | 
[V:3] c8- | 
[V:4] F,8- | 
[V:1] F3EC4 | 
[V:2] z8 | 
[V:3] c8 | 
[V:4] F,8- | 
[V:1] z4F4 | 
[V:2] c8 | 
[V:3] A8 | 
[V:4] F,8 | 
[V:1] F6G2 | 
[V:2] d8 | 
[V:3] A4B4 | 
[V:4] D,8- | 
[V:1] A4_B4- | 
[V:2] f6e2 | 
[V:3] A4d4- | 
[V:4] D,8 | 
[V:1] B2G2G4- | 
[V:2] f4d4- | 
[V:3] d4B4 | 
[V:4] z8 | 
[V:1] G4^F4 | 
[V:2] d4c4 | 
[V:3] A8 | 
[V:4] z8 | 
[V:1] G6F2 | 
[V:2] d6B2 | 
[V:3] G8- | 
[V:4] G,,8- | 
[V:1] D8 | 
[V:2] B6G2 | 
[V:3] G8- | 
[V:4] G,,8- | 
[V:1] z8 | 
[V:2] G3FD2E2 | 
[V:3] G8- | 
[V:4] G,,8- | 
[V:1] z8 | 
[V:2] D2G4E2 | 
[V:3] G8 | 
[V:4] G,,8 | 
[V:1] z8 | 
[V:2] D2d4c2- | 
[V:3] z8 | 
[V:4] B,,6C,2 | 
[V:1] z8 | 
[V:2] cBAG^F3E | 
[V:3] z8 | 
[V:4] D,2B,,2A,,4 | 
[V:1] z8 | 
[V:2] G8- | 
[V:3] z8 | 
[V:4] G,,3A,,B,,2C,2 | 
[V:1] z8 | 
[V:2] G8- | 
[V:3] z8 | 
[V:4] B,,2C,3D,E,F, | 
[V:1] z8 | 
[V:2] G8- | 
[V:3] z8 | 
[V:4] G,2C,4E,2- | 
[V:1] z8 | 
[V:2] G8 | 
[V:3] z8 | 
[V:4] E,D,C,2B,,2E,2 | 
[V:1] z8 | 
[V:2] F4G2E2 | 
[V:3] z8 | 
[V:4] D,4G,,2C,2- | 
[V:1] z8 | 
[V:2] A4G4 | 
[V:3] z8 | 
[V:4] C,2D,2E,2C,2- | 
[V:1] z8 | 
[V:2] C2D2C2G2- | 
[V:3] z8 | 
[V:4] C,2G,,2A,,2G,,2 | 
[V:1] z8 | 
[V:2] G6F2 | 
[V:3] z8 | 
[V:4] C,2B,,2C,2D,2 | 
[V:1] z8 | 
[V:2] G2E2D4 | 
[V:3] z8 | 
[V:4] G,,2C,4B,,2 | 
[V:1] G8 | 
[V:2] C8 | 
[V:3] z8 | 
[V:4] C,6B,,2 | 
[V:1] A4G2c2- | 
[V:2] z8 | 
[V:3] z8 | 
[V:4] C,2D,2E,2F,2 | 
[V:1] c2B2c4- | 
[V:2] z8 | 
[V:3] z8 | 
[V:4] D,4C,4 | 
[V:1] c8 | 
[V:2] z8 | 
[V:3] z8 | 
[V:4] C3B,C2E2- | 
[V:1] _B4A2G2- | 
[V:2] z8 | 
[V:3] z8 | 
[V:4] E2D3B,C2 | 
[V:1] G2^F2G4- | 
[V:2] z8 | 
[V:3] z8 | 
[V:4] A,4G,3A, | 
[V:1] G4F4 | 
[V:2] z8 | 
[V:3] z8 | 
[V:4] B,2C2z2B,2 | 
[V:1] E2G2D2F2- | 
[V:2] z8 | 
[V:3] z8 | 
[V:4] C2G,2_B,3A, | 
[V:1] FEC4D2 | 
[V:2] z8 | 
[V:3] z8 | 
[V:4] F,3G,A,2D,2- | 
[V:1] F4E4 | 
[V:2] z8 | 
[V:3] z8 | 
[V:4] D,E,F,2C,2G,2- | 
[V:1] D4C2D2 | 
[V:2] z8 | 
[V:3] z8 | 
[V:4] G,F,G,2A,2D,2- | 
[V:1] B,2A,4B,2 | 
[V:2] z8 | 
[V:3] z8 | 
[V:4] D,C,D,2A,,2D,2- | 
[V:1] A,2D4^C2 | 
[V:2] z8 | 
[V:3] z8 | 
[V:4] D,2F,2E,4 | 
[V:1] D8 | 
[V:2] z8 | 
[V:3] D8 | 
[V:4] D,6F,2- | 
[V:1] z8 | 
[V:2] z8 | 
[V:3] D4E4 | 
[V:4] F,2E,D,C,2D,2 | 
[V:1] z8 | 
[V:2] z8 | 
[V:3] A4G4 | 
[V:4] F,4E,2D,2 | 
[V:1] z8 | 
[V:2] z8 | 
[V:3] F4E4- | 
[V:4] D,6B,,2 | 
[V:1] z4D3E | 
[V:2] z8 | 
[V:3] E4D4- | 
[V:4] C,4z2D,2 | 
[V:1] F2G4^F2 | 
[V:2] z8 | 
[V:3] D4z4 | 
[V:4] D,2B,,2C,2A,,2 | 
[V:1] G6F2 | 
[V:2] z4B4- | 
[V:3] z8 | 
[V:4] G,,4G,4- | 
[V:1] D4C4 | 
[V:2] B4c4 | 
[V:3] z8 | 
[V:4] G,4A,4 | 
[V:1] D2F2E2A2- | 
[V:2] z2d2c2e2 | 
[V:3] z8 | 
[V:4] B,4C4 | 
[V:1] A2G3E^F2 | 
[V:2] d2B2c3d | 
[V:3] z8 | 
[V:4] G,2B,2A,4 | 
[V:1] G8 | 
[V:2] e4d2d2- | 
[V:3] z8 | 
[V:4] G,2G,4F,2 | 
[V:1] z2G4F2 | 
[V:2] d2c2B4 | 
[V:3] z8 | 
[V:4] E,4D,4 | 
[V:1] E4D4 | 
[V:2] c4d4 | 
[V:3] z8 | 
[V:4] C,4z4 | 
[V:1] C2c4B2 | 
[V:2] e4c4 | 
[V:3] z8 | 
[V:4] C8- | 
[V:1] A2G2G4 | 
[V:2] e4d2B2 | 
[V:3] z8 | 
[V:4] C4B,2G,2 | 
[V:1] F2E2G4 | 
[V:2] c4d4 | 
[V:3] z8 | 
[V:4] A,4G,4- | 
[V:1] z4C4 | 
[V:2] B2A2G4 | 
[V:3] z8 | 
[V:4] G,2F,2E,4 | 
[V:1] B,2D4CB, | 
[V:2] F2G2A4 | 
[V:3] z8 | 
[V:4] D,4F,4- | 
[V:1] A,4B,4 | 
[V:2] D4z4 | 
[V:3] z8 | 
[V:4] F,4G,4 | 
[V:1] G,4C4 | 
[V:2] G4A4 | 
[V:3] z8 | 
[V:4] z2C,4A,,2 | 
[V:1] D4E2C2- | 
[V:2] F2G6- | 
[V:3] z8 | 
[V:4] B,,4C,3D, | 
[V:1] C2D4B,2 | 
[V:2] G2A2B2G2- | 
[V:3] z8 | 
[V:4] E,2D,2G,4 | 
[V:1] C3DE2F2 | 
[V:2] G2A3Bc2 | 
[V:3] z8 | 
[V:4] E,2F,3G,A,2 | 
[V:1] G6A2- | 
[V:2] d2c2e4- | 
[V:3] z8 | 
[V:4] G,2C6- | 
[V:1] A2G4^F2 | 
[V:2] e2d4c2 | 
[V:3] z8 | 
[V:4] C2B,2A,4 | 
[V:1] G4z2D2- | 
[V:2] B2G2A4 | 
[V:3] z8 | 
[V:4] G,4F,4 | 
[V:1] D2B,2C2A,2- | 
[V:2] z2G4E2 | 
[V:3] z8 | 
[V:4] G,4C,4 | 
[V:1] A,2G,2z2C2- | 
[V:2] D2G3EF2 | 
[V:3] z8 | 
[V:4] B,,4A,,4 | 
[V:1] CB,E2D2G2 | 
[V:2] G2A2B4 | 
[V:3] z8 | 
[V:4] G,,4G,4 | 
[V:1] z2F2E2D2- | 
[V:2] c2F2G2_B2- | 
[V:3] z8 | 
[V:4] A,4G,4 | 
[V:1] DCC4B,2 | 
[V:2] B2A2F3E | 
[V:3] z8 | 
[V:4] E,2F,2D,4 | 
[V:1] C8 ||  
[V:2] G8 ||  
[V:3] z8 ||  
[V:4] C,8 ||  
[V:1] [M:3/1]C6D2E4- | 
[V:2] [M:3/1]c4A2G2c4- | 
[V:3] [M:3/1]z12 | 
[V:4] [M:3/1]z12 | 
[V:1] E2F2G4G4 | 
[V:2] c2d2e4c4 | 
[V:3] z12 | 
[V:4] z12 | 
[V:1] A8G4 | 
[V:2] f8e2c2- | 
[V:3] z12 | 
[V:4] z12 | 
[V:1] A2G2c4B2G2 | 
[V:2] c2B2A4G4 | 
[V:3] z12 | 
[V:4] z12 | 
[V:1] A2G4E3FED/C/ | 
[V:2] c4B2G2c4 | 
[V:3] z12 | 
[V:4] z12 | 
[V:1] B,4z4B4 | 
[V:2] d3cA4G4 | 
[V:3] z12 | 
[V:4] z12 | 
[V:1] A4G2c4B2- | 
[V:2] c2d2e4d4 | 
[V:3] z12 | 
[V:4] z12 | 
[V:1] BcA4G3E^F2 | 
[V:2] c2d2G4A4 | 
[V:3] z12 | 
[V:4] z12 | 
[V:1] G6E2E2D2 | 
[V:2] B8E4- | 
[V:3] G12 | 
[V:4] z12 | 
[V:1] G4F2E2D4 | 
[V:2] E4D8 | 
[V:3] B12 | 
[V:4] z12 | 
[V:1] C4z4G4 | 
[V:2] G12 | 
[V:3] c12- | 
[V:4] C,12 | 
[V:1] A4c6BA | 
[V:2] z4z4c3d | 
[V:3] c12- | 
[V:4] F,12 | 
[V:1] G8c4- | 
[V:2] e12 | 
[V:3] c12- | 
[V:4] E,4C,8 | 
[V:1] c4A8 | 
[V:2] f6e2c4 | 
[V:3] c12 | 
[V:4] F,12 | 
[V:1] G4c8 | 
[V:2] B4A3Bc4 | 
[V:3] e12 | 
[V:4] G,4A,8 | 
[V:1] B2G4B2A4 | 
[V:2] z4G4D4 | 
[V:3] e8d4- | 
[V:4] G,4E,4F,4 | 
[V:1] G4z2F4E2 | 
[V:2] _B4A8 | 
[V:3] d12 | 
[V:4] G,4D,8 | 
[V:1] G8z4 | 
[V:2] G2B3cd2G4 | 
[V:3] d12- | 
[V:4] G,,4z2G,,2B,,3C, | 
[V:1] D2G3AB2A4 | 
[V:2] F2G2z2G2D4 | 
[V:3] d12- | 
[V:4] D,3E,F,2G,4F,2 | 
[V:1] G2F2G2z2D2G2- | 
[V:2] G2A2B2c2d2z2 | 
[V:3] d12- | 
[V:4] G,2D,2G,3A,B,2C2 | 
[V:1] G2A2B2G2A4 | 
[V:2] G2G4B2A4 | 
[V:3] d12 | 
[V:4] D4G,4F,4 | 
[V:1] z2_B4AGF4 | 
[V:2] G4z4d4 | 
[V:3] d12 | 
[V:4] G,4D,8 | 
[V:1] G6F2E2D2 | 
[V:2] B4c3BG2A2 | 
[V:3] z12 | 
[V:4] E,4C,4G,4 | 
[V:1] E4D2D4^C2 | 
[V:2] B4A2A4G2 | 
[V:3] z12 | 
[V:4] G,4F,2D,2E,4 | 
[V:1] D2F3ED2C4 | 
[V:2] A2B2c2d2A3B | 
[V:3] z12 | 
[V:4] D,4z2D,2F,3G, | 
[V:1] F3GA2B2c3B | 
[V:2] c4d4c3d | 
[V:3] z12 | 
[V:4] A,4F,2G,2A,2B,2 | 
[V:1] G2A4G2c2BG- | 
[V:2] e6d2c2B2 | 
[V:3] z12 | 
[V:4] C6B,2A,2G,2 | 
[V:1] GED2E2C2z2F2 | 
[V:2] c2G2z2A2G2D2 | 
[V:3] z12 | 
[V:4] C2B,2C4D4 | 
[V:1] G2A4G2c4 | 
[V:2] E2F4G3EF2 | 
[V:3] z12 | 
[V:4] C6B,2A,4 | 
[V:1] B4z4G4 | 
[V:2] G2B4A2G4 | 
[V:3] G6F2E4 | 
[V:4] z2G,4A,2B,2C2 | 
[V:1] F6G2A2B2- | 
[V:2] A8z4 | 
[V:3] D4d8- | 
[V:4] D4D,3E,F,2G,2- | 
[V:1] BAGFE2G4c2- | 
[V:2] B4c3BG2A2 | 
[V:3] d4e8 | 
[V:4] G,F,E,D,C,6A,,2- | 
[V:1] c2B2G4G3A | 
[V:2] E2G4E4C2 | 
[V:3] e4e3dB2c2 | 
[V:4] A,,2G,,2C,3D,E,4 | 
[V:1] c2B4G4^F2 | 
[V:2] G4B2c2d4 | 
[V:3] e2d2G4A4 | 
[V:4] C,2G,4E,2D,4 | 
[V:1] G12- | 
[V:2] e4d2B6 | 
[V:3] G12- | 
[V:4] G,,12- | 
[V:1] G12- | 
[V:2] G3AB4E4 | 
[V:3] G12- | 
[V:4] G,,12- | 
[V:1] G12 |]  
[V:2] D12 |]  
[V:3] G12 |]  
[V:4] G,,12 |]  



